flaticon/interaction/smartphone-6.svg

<svg xmlns="http://www.w3.org/2000/svg" width="32" height="32" viewBox="0 0 24 24">
    <path d="M22.152344 16.089844C21.992188 14.453125 20.773438 13.269531 19.242188 13.269531 18.285156 13.269531 17.480469 13.847656 16.96875 14.554688 16.460938 13.847656 15.65625 13.269531 14.695312 13.269531 13.167969 13.269531 11.949219 14.453125 11.789062 16.089844 11.769531 16.195312 11.730469 16.578125 11.878906 17.171875 12.097656 18.050781 12.597656 18.847656 13.332031 19.480469L16.660156 22.328125C16.75 22.40625 16.859375 22.445312 16.96875 22.445312 17.078125 22.445312 17.1875 22.40625 17.277344 22.332031L20.609375 19.480469C21.339844 18.847656 21.84375 18.050781 22.0625 17.171875 22.210938 16.578125 22.167969 16.195312 22.152344 16.089844zM21.285156 16.980469C21.105469 17.695312 20.695312 18.351562 20.089844 18.871094L16.96875 21.542969 13.851562 18.875C13.246094 18.351562 12.832031 17.695312 12.65625 16.980469 12.535156 16.492188 12.578125 16.222656 12.578125 16.222656L12.585938 16.179688C12.683594 15.128906 13.441406 14.070312 14.695312 14.070312 15.574219 14.070312 16.285156 14.792969 16.605469 15.511719L16.972656 16.335938 17.335938 15.511719C17.65625 14.792969 18.367188 14.070312 19.246094 14.070312 20.503906 14.070312 21.257812 15.128906 21.363281 16.214844 21.363281 16.21875 21.40625 16.492188 21.285156 16.980469zM7.03125 2L8.628906 2C8.851562 2 9.03125 1.820312 9.03125 1.601562 9.03125 1.378906 8.851562 1.199219 8.628906 1.199219L7.03125 1.199219C6.808594 1.199219 6.628906 1.378906 6.628906 1.601562 6.628906 1.820312 6.808594 2 7.03125 2zM9.832031 2L10.230469 2C10.453125 2 10.628906 1.820312 10.628906 1.601562 10.628906 1.378906 10.453125 1.199219 10.230469 1.199219L9.832031 1.199219C9.609375 1.199219 9.429688 1.378906 9.429688 1.601562 9.429688 1.820312 9.609375 2 9.832031 2zM7.03125 21.199219C7.03125 22.082031 7.746094 22.800781 8.628906 22.800781 9.511719 22.800781 10.230469 22.082031 10.230469 21.199219 10.230469 20.316406 9.511719 19.601562 8.628906 19.601562 7.746094 19.601562 7.03125 20.316406 7.03125 21.199219zM9.429688 21.199219C9.429688 21.640625 9.070312 22 8.628906 22 8.1875 22 7.832031 21.640625 7.832031 21.199219 7.832031 20.757812 8.1875 20.398438 8.628906 20.398438 9.070312 20.398438 9.429688 20.757812 9.429688 21.199219zM9.429688 21.199219"/>
    <path d="M 11.03125 18.398438 L 2.628906 18.398438 L 2.628906 3.199219 L 14.628906 3.199219 L 14.628906 12 C 14.628906 12.222656 14.808594 12.398438 15.03125 12.398438 C 15.25 12.398438 15.429688 12.222656 15.429688 12 L 15.429688 1.761719 C 15.429688 0.789062 14.640625 0 13.667969 0 L 3.59375 0 C 2.621094 0 1.832031 0.789062 1.832031 1.761719 L 1.832031 22.238281 C 1.832031 23.210938 2.621094 24 3.59375 24 L 10.628906 24 C 10.851562 24 11.03125 23.820312 11.03125 23.601562 C 11.03125 23.378906 10.851562 23.199219 10.628906 23.199219 L 3.59375 23.199219 C 3.0625 23.199219 2.628906 22.769531 2.628906 22.238281 L 2.628906 19.199219 L 11.03125 19.199219 C 11.25 19.199219 11.429688 19.019531 11.429688 18.800781 C 11.429688 18.578125 11.25 18.398438 11.03125 18.398438 Z M 3.59375 0.800781 L 13.667969 0.800781 C 14.199219 0.800781 14.628906 1.230469 14.628906 1.761719 L 14.628906 2.398438 L 2.628906 2.398438 L 2.628906 1.761719 C 2.628906 1.230469 3.0625 0.800781 3.59375 0.800781 Z M 3.59375 0.800781"/>
</svg>

<svg xmlns="http://www.w3.org/2000/svg" width="32" height="32" viewBox="0 0 24 24">
    <path d="M22.152 16.09c-.16-1.637-1.379-2.82-2.91-2.82-.957 0-1.762.578-2.273 1.285-.508-.707-1.313-1.285-2.274-1.285-1.527 0-2.746 1.183-2.906 2.82-.02.105-.059.488.09 1.082.219.879.719 1.676 1.453 2.308l3.328 2.848a.469.469 0 0 0 .617.004l3.332-2.852c.73-.632 1.235-1.43 1.453-2.308.149-.594.106-.977.09-1.082zm-.867.89a3.678 3.678 0 0 1-1.195 1.891l-3.121 2.672-3.117-2.668c-.606-.523-1.02-1.18-1.196-1.895-.12-.488-.078-.757-.078-.757l.008-.043c.098-1.051.855-2.11 2.11-2.11.878 0 1.59.723 1.91 1.442l.367.824.363-.824c.32-.719 1.031-1.442 1.91-1.442 1.258 0 2.012 1.059 2.117 2.145 0 .004.043.277-.078.765zm0 0M7.031 2H8.63a.401.401 0 1 0 0-.8H7.03a.401.401 0 0 0 0 .8zm0 0M9.832 2h.398c.223 0 .399-.18.399-.398a.398.398 0 0 0-.399-.403h-.398a.401.401 0 0 0 0 .8zm0 0M7.031 21.2a1.6 1.6 0 0 0 1.598 1.6c.883 0 1.601-.718 1.601-1.6a1.6 1.6 0 0 0-3.199 0zm2.399 0a.799.799 0 1 1-1.598 0 .799.799 0 1 1 1.598 0zm0 0"/>
    <path d="M11.031 18.398H2.63V3.2h12V12c0 .223.18.398.402.398A.398.398 0 0 0 15.43 12V1.762C15.43.789 14.64 0 13.668 0H3.594C2.62 0 1.832.79 1.832 1.762v20.476c0 .973.79 1.762 1.762 1.762h7.035a.401.401 0 1 0 0-.8H3.594a.964.964 0 0 1-.965-.962V19.2h8.402a.4.4 0 0 0 0-.8zM3.594.801h10.074c.531 0 .96.43.96.96v.637h-12v-.636c0-.532.434-.961.966-.961zm0 0"/>
</svg>
